src/public/assets/tick.svg

<svg width="23" height="18" viewBox="0 0 23 18" fill="none" xmlns="http://www.w3.org/2000/svg">
    <path fill-rule="evenodd" clip-rule="evenodd" d="M22.8402 2.49999L22.0446 3.29548L8.85534 16.4848C7.83023 17.5099 6.16817 17.5099 5.14304 16.4848L0.953698 12.2955L0.158203 11.5L1.7492 9.909L2.54469 10.7045L6.73403 14.8939C6.88047 15.0403 7.11791 15.0403 7.26435 14.8939L20.4537 1.70449L21.2492 0.908997L22.8402 2.49999Z" fill="#00FF80"/>
</svg>

<svg xmlns="http://www.w3.org/2000/svg" width="23" height="18" fill="none"><path fill="#00FF80" fill-rule="evenodd" d="m22.84 2.5-.795.795-13.19 13.19a2.625 2.625 0 0 1-3.712 0l-4.19-4.19-.795-.795L1.75 9.909l.796.795 4.189 4.19a.375.375 0 0 0 .53 0l13.19-13.19.795-.795z" clip-rule="evenodd"/></svg>
